X:18
T:The Humours of Ballyloughlin
M:6/8
R:Jig
S:phelan-2/43a
L:1/8
K:G
ABA AGE   | GED DED | cBc  ded | cAE  GED | A2  A   AGE | GEG cEA | DED  DFA | DED  D3 :|
~c3 cAB   | cAG ABc | ~d3  dfe | dcA  DFA | c2  A   dcB | cAG FGE | DED  DFA | DED  D3 :|
fdd gdd   | fdd ged | ^cde ged | ^cde ~g3 | fdd gdd     | fdd ged | ^cde gag | ed^c d3 :|
ABA d2  A | ~F3 GED | ~E3  EFD | ~E3  EFG | AFA d2  A   | ~F3 GEA | DED  DFA | DED  D3 :|

